assets/img/braze_icons/target-02.svg

<svg fill="none" height="24" viewBox="0 0 24 24" width="24" xmlns="http://www.w3.org/2000/svg"><path clip-rule="evenodd" d="m12 1c.5523 0 1 .44772 1 1v1.05493c4.1716.46115 7.4839 3.77345 7.9451 7.94507h1.0549c.5523 0 1 .4477 1 1s-.4477 1-1 1h-1.0549c-.4612 4.1716-3.7735 7.4839-7.9451 7.9451v1.0549c0 .5523-.4477 1-1 1s-1-.4477-1-1v-1.0549c-4.17162-.4612-7.48392-3.7735-7.94507-7.9451h-1.05493c-.55228 0-1-.4477-1-1s.44772-1 1-1h1.05493c.46115-4.17162 3.77345-7.48392 7.94507-7.94507v-1.05493c0-.55228.4477-1 1-1zm1 17.9291v-.9291c0-.5523-.4477-1-1-1s-1 .4477-1 1v.9291c-3.06569-.4385-5.4906-2.8634-5.92911-5.9291h.92911c.55228 0 1-.4477 1-1s-.44772-1-1-1h-.92911c.43851-3.06569 2.86342-5.4906 5.92911-5.92911v.92911c0 .55228.4477 1 1 1s1-.44772 1-1v-.92911c3.0657.43851 5.4906 2.86342 5.9291 5.92911h-.9291c-.5523 0-1 .4477-1 1s.4477 1 1 1h.9291c-.4385 3.0657-2.8634 5.4906-5.9291 5.9291z" fill="#801ed7" fill-rule="evenodd"/></svg>

<svg width="24" height="24" viewBox="0 0 24 24" fill="none" xmlns="http://www.w3.org/2000/svg">
<path fill-rule="evenodd" clip-rule="evenodd" d="M12 1C12.5523 1 13 1.44772 13 2V3.05493C17.1716 3.51608 20.4839 6.82838 20.9451 11H22C22.5523 11 23 11.4477 23 12C23 12.5523 22.5523 13 22 13H20.9451C20.4839 17.1716 17.1716 20.4839 13 20.9451V22C13 22.5523 12.5523 23 12 23C11.4477 23 11 22.5523 11 22V20.9451C6.82838 20.4839 3.51608 17.1716 3.05493 13H2C1.44772 13 1 12.5523 1 12C1 11.4477 1.44772 11 2 11H3.05493C3.51608 6.82838 6.82838 3.51608 11 3.05493V2C11 1.44772 11.4477 1 12 1ZM13 18.9291V18C13 17.4477 12.5523 17 12 17C11.4477 17 11 17.4477 11 18V18.9291C7.93431 18.4906 5.5094 16.0657 5.07089 13H6C6.55228 13 7 12.5523 7 12C7 11.4477 6.55228 11 6 11H5.07089C5.5094 7.93431 7.93431 5.5094 11 5.07089V6C11 6.55228 11.4477 7 12 7C12.5523 7 13 6.55228 13 6V5.07089C16.0657 5.5094 18.4906 7.93431 18.9291 11H18C17.4477 11 17 11.4477 17 12C17 12.5523 17.4477 13 18 13H18.9291C18.4906 16.0657 16.0657 18.4906 13 18.9291Z" fill="#801ED7"/>
</svg>
